website/static/img/crawlee-dark.svg

<svg width="138" height="42" viewBox="0 0 138 42" fill="none" xmlns="http://www.w3.org/2000/svg">
<g clip-path="url(#clip0_6_33)">
<path d="M39.8426 34.8093H10.4431C10.0225 34.8093 9.75965 34.3361 9.96995 33.9549L17.3206 20.7158L24.6713 7.47663C24.8816 7.09874 25.4074 7.09874 25.6177 7.47663L30.3462 15.9938C27.5038 16.697 25.3975 19.2634 25.3975 22.3226C25.3975 25.924 28.3155 28.8419 31.9169 28.8419C33.6814 28.8419 35.285 28.142 36.4581 26.9985L40.3191 33.9549C40.5294 34.3328 40.2665 34.8093 39.8459 34.8093H39.8426Z" fill="url(#paint0_linear_6_33)" stroke="url(#paint1_linear_6_33)" stroke-width="1.03929" stroke-linecap="round" stroke-linejoin="round"/>
<path d="M37.8546 25.0171C36.8294 27.2745 34.5555 28.8419 31.9169 28.8419C28.3155 28.8419 25.3976 25.924 25.3976 22.3226C25.3976 18.7212 28.3155 15.8033 31.9169 15.8033C32.929 15.8033 33.8852 16.0333 34.7395 16.444" stroke="url(#paint2_linear_6_33)" stroke-width="2" stroke-linecap="round" stroke-linejoin="round"/>
</g>
<path d="M52.8678 27.6143C56.0907 27.6143 57.7593 25.7171 58.0564 23.2714H55.3136C55.1078 24.3914 54.4678 25.3057 52.9821 25.3057C51.2907 25.3057 50.2621 24.0486 50.2621 21.9C50.2621 19.7514 51.3593 18.4943 53.005 18.4943C54.4221 18.4943 55.1078 19.4314 55.3136 20.5971H58.0564C57.7821 18.0829 56.1364 16.1857 52.9364 16.1857C49.7136 16.1857 47.4278 18.5629 47.4278 21.9457C47.4278 25.26 49.485 27.6143 52.8678 27.6143ZM65.9005 16.1857C64.4605 16.1857 63.5462 16.9857 62.9977 18.1057L62.9519 16.3H60.2777V27.5H63.0662V21.5114C63.2491 19.82 64.4148 18.8829 65.7862 18.8829C66.2205 18.8829 66.4034 18.9286 66.5634 18.9971L66.5862 16.2543C66.4491 16.2314 66.1748 16.1857 65.9005 16.1857ZM78.8516 25.1457C78.6002 25.2371 78.463 25.26 78.2802 25.26C77.9373 25.26 77.7087 25.0086 77.7087 24.5743V20.6429C77.7087 17.8543 75.9944 16.1857 72.8173 16.1857C69.9602 16.1857 68.0173 17.58 67.8344 20.0943H70.3944C70.5087 18.9971 71.3316 18.3571 72.6573 18.3571C74.2116 18.3571 74.9887 19.18 74.9887 20.4829V21.0543H73.2516C70.1887 21.0543 67.5602 21.9229 67.5602 24.5743C67.5602 26.38 68.863 27.6143 71.3544 27.6143C73.7544 27.6143 74.7373 26.4714 75.103 25.7857C75.423 26.9971 76.3144 27.6143 77.5259 27.6143C78.0973 27.6143 78.6002 27.5229 79.0344 27.4086L78.8516 25.1457ZM72.0859 25.5343C70.8516 25.5343 70.2802 25.0771 70.2802 24.2771C70.2802 23.2257 71.2859 22.6771 73.1144 22.6771H74.9887V23.4086C74.9887 24.3686 73.9144 25.5343 72.0859 25.5343ZM93.5246 16.3L91.8332 23.4543C91.6732 24.0486 91.5818 24.46 91.5361 24.8029H91.4675C91.3989 24.46 91.2846 24.0029 91.1475 23.4543L89.2961 16.3H86.7132L84.8846 23.4543C84.7475 24.0029 84.6103 24.46 84.5646 24.8029H84.4961C84.4503 24.46 84.3132 24.0029 84.1989 23.4543L82.4846 16.3H79.5361L82.8046 27.5H86.0046L87.7875 20.9857C87.8561 20.6886 87.9475 20.14 87.9703 19.9114H88.0389C88.0618 20.14 88.1761 20.6886 88.2446 20.9857L90.0275 27.5H93.2275L96.4732 16.3H93.5246ZM102.109 25.1457C101.857 25.2371 101.743 25.26 101.56 25.26C101.217 25.26 100.966 25.0086 100.966 24.5743V11.2714H98.2002V24.8029C98.2002 26.5857 99.0916 27.6143 100.76 27.6143C101.377 27.6143 101.857 27.5229 102.292 27.4086L102.109 25.1457ZM114.444 21.9686C114.444 18.4714 112.524 16.1857 109.209 16.1857C106.009 16.1857 103.678 18.54 103.678 21.9229C103.678 25.2371 105.758 27.6143 109.186 27.6143C112.455 27.6143 114.009 25.8086 114.398 23.8429H111.769C111.586 24.5286 110.969 25.3971 109.301 25.3971C107.701 25.3971 106.626 24.3686 106.421 22.54H114.444V21.9686ZM109.232 18.3343C110.626 18.3343 111.564 19.1114 111.792 20.8257H106.466C106.764 19.18 107.838 18.3343 109.232 18.3343ZM126.921 21.9686C126.921 18.4714 125.001 16.1857 121.687 16.1857C118.487 16.1857 116.156 18.54 116.156 21.9229C116.156 25.2371 118.236 27.6143 121.664 27.6143C124.933 27.6143 126.487 25.8086 126.876 23.8429H124.247C124.064 24.5286 123.447 25.3971 121.778 25.3971C120.178 25.3971 119.104 24.3686 118.898 22.54H126.921V21.9686ZM121.71 18.3343C123.104 18.3343 124.041 19.1114 124.27 20.8257H118.944C119.241 19.18 120.316 18.3343 121.71 18.3343Z" fill="#F2F3FB"/>
<defs>
<linearGradient id="paint0_linear_6_33" x1="32.826" y1="8.28635" x2="17.0313" y2="8.91965" gradientUnits="userSpaceOnUse">
<stop offset="0.000950807" stop-color="#FFB200"/>
<stop offset="0.357731" stop-color="#F99055"/>
<stop offset="0.691154" stop-color="#F56363"/>
<stop offset="0.998951" stop-color="#F1264A"/>
</linearGradient>
<linearGradient id="paint1_linear_6_33" x1="32.826" y1="8.28635" x2="17.0313" y2="8.91965" gradientUnits="userSpaceOnUse">
<stop offset="0.000950807" stop-color="#FFB200"/>
<stop offset="0.357731" stop-color="#F99055"/>
<stop offset="0.691154" stop-color="#F56363"/>
<stop offset="0.998951" stop-color="#F1264A"/>
</linearGradient>
<linearGradient id="paint2_linear_6_33" x1="34.7637" y1="16.3194" x2="28.3095" y2="16.5433" gradientUnits="userSpaceOnUse">
<stop offset="0.000950807" stop-color="#FFB200"/>
<stop offset="0.357731" stop-color="#F99055"/>
<stop offset="0.691154" stop-color="#F56363"/>
<stop offset="0.998951" stop-color="#F1264A"/>
</linearGradient>
<clipPath id="clip0_6_33">
<rect x="9.41791" y="6.71429" width="31.4499" height="28.5714" fill="white"/>
</clipPath>
</defs>
</svg>

<svg width="138" height="42" fill="none" xmlns="http://www.w3.org/2000/svg">
    <g clip-path="url(#a)" stroke-linecap="round" stroke-linejoin="round">
        <path d="M39.843 34.81h-29.4c-.42 0-.683-.474-.473-.855l7.35-13.24 7.351-13.238a.537.537 0 0 1 .947 0l4.728 8.517a6.521 6.521 0 0 0 1.57 12.848c1.765 0 3.369-.7 4.542-1.843l3.861 6.956c.21.378-.053.854-.473.854h-.003Z" fill="url(#b)" stroke="url(#c)" stroke-width="1.039"/>
        <path d="M37.855 25.017a6.519 6.519 0 0 1-5.938 3.825 6.518 6.518 0 0 1-6.52-6.52 6.518 6.518 0 0 1 9.343-5.878" stroke="url(#d)" stroke-width="2"/>
    </g>
    <path d="M52.868 27.614c3.223 0 4.891-1.897 5.188-4.343h-2.742c-.206 1.12-.846 2.035-2.332 2.035-1.691 0-2.72-1.257-2.72-3.406s1.097-3.406 2.743-3.406c1.417 0 2.103.937 2.309 2.103h2.742c-.274-2.514-1.92-4.411-5.12-4.411-3.222 0-5.508 2.377-5.508 5.76 0 3.314 2.057 5.668 5.44 5.668ZM65.9 16.186c-1.44 0-2.354.8-2.902 1.92l-.046-1.806h-2.674v11.2h2.788v-5.989c.183-1.691 1.349-2.628 2.72-2.628.434 0 .617.046.777.114l.023-2.743a4.258 4.258 0 0 0-.686-.068Zm12.952 8.96a1.483 1.483 0 0 1-.572.114c-.343 0-.571-.251-.571-.686v-3.931c0-2.789-1.715-4.457-4.892-4.457-2.857 0-4.8 1.394-4.983 3.908h2.56c.115-1.097.938-1.737 2.263-1.737 1.555 0 2.332.823 2.332 2.126v.571h-1.737c-3.063 0-5.692.869-5.692 3.52 0 1.806 1.303 3.04 3.794 3.04 2.4 0 3.383-1.143 3.749-1.828.32 1.211 1.211 1.828 2.423 1.828.571 0 1.074-.091 1.508-.205l-.182-2.263Zm-6.766.388c-1.234 0-1.806-.457-1.806-1.257 0-1.051 1.006-1.6 2.834-1.6h1.875v.732c0 .96-1.075 2.125-2.903 2.125ZM93.525 16.3l-1.692 7.154c-.16.595-.251 1.006-.297 1.349h-.069c-.068-.343-.182-.8-.32-1.349l-1.85-7.154h-2.584l-1.828 7.154c-.138.549-.275 1.006-.32 1.349h-.069c-.046-.343-.183-.8-.297-1.349L82.485 16.3h-2.949l3.269 11.2h3.2l1.782-6.514c.07-.297.16-.846.183-1.075h.069c.023.229.137.778.206 1.075l1.782 6.514h3.2l3.246-11.2h-2.948Zm8.584 8.846c-.252.091-.366.114-.549.114-.343 0-.594-.251-.594-.686V11.271H98.2v13.532c0 1.783.892 2.811 2.56 2.811.617 0 1.097-.091 1.532-.205l-.183-2.263Zm12.335-3.177c0-3.498-1.92-5.783-5.235-5.783-3.2 0-5.531 2.354-5.531 5.737 0 3.314 2.08 5.691 5.508 5.691 3.269 0 4.823-1.805 5.212-3.771h-2.629c-.183.686-.8 1.554-2.468 1.554-1.6 0-2.675-1.028-2.88-2.857h8.023v-.571Zm-5.212-3.635c1.394 0 2.332.777 2.56 2.492h-5.326c.298-1.646 1.372-2.492 2.766-2.492Zm17.689 3.635c0-3.498-1.92-5.783-5.234-5.783-3.2 0-5.531 2.354-5.531 5.737 0 3.314 2.08 5.691 5.508 5.691 3.269 0 4.823-1.805 5.212-3.771h-2.629c-.183.686-.8 1.554-2.469 1.554-1.6 0-2.674-1.028-2.88-2.857h8.023v-.571Zm-5.211-3.635c1.394 0 2.331.777 2.56 2.492h-5.326c.297-1.646 1.372-2.492 2.766-2.492Z" fill="#F2F3FB"/>
    <defs>
        <linearGradient id="b" x1="40.393" y1="7.193" x2="12.912" y2="37.541" gradientUnits="userSpaceOnUse">
            <stop offset=".001" stop-color="#FFB200"/>
            <stop offset=".081" stop-color="#FFB100"/>
            <stop offset=".156" stop-color="#FFAF02"/>
            <stop offset=".225" stop-color="#FEAB04"/>
            <stop offset=".291" stop-color="#FDA606"/>
            <stop offset=".353" stop-color="#FCA00A"/>
            <stop offset=".413" stop-color="#FB980E"/>
            <stop offset=".471" stop-color="#FA9013"/>
            <stop offset=".529" stop-color="#F98618"/>
            <stop offset=".587" stop-color="#F77B1E"/>
            <stop offset=".647" stop-color="#F56F24"/>
            <stop offset=".709" stop-color="#F3632B"/>
            <stop offset=".774" stop-color="#F25532"/>
            <stop offset=".844" stop-color="#EF473A"/>
            <stop offset=".918" stop-color="#ED3842"/>
            <stop offset=".999" stop-color="#EB284B"/>
        </linearGradient>
        <linearGradient id="c" x1="40.393" y1="7.193" x2="12.912" y2="37.541" gradientUnits="userSpaceOnUse">
            <stop offset=".001" stop-color="#FFB200"/>
            <stop offset=".081" stop-color="#FFB100"/>
            <stop offset=".156" stop-color="#FFAF02"/>
            <stop offset=".225" stop-color="#FEAB04"/>
            <stop offset=".291" stop-color="#FDA606"/>
            <stop offset=".353" stop-color="#FCA00A"/>
            <stop offset=".413" stop-color="#FB980E"/>
            <stop offset=".471" stop-color="#FA9013"/>
            <stop offset=".529" stop-color="#F98618"/>
            <stop offset=".587" stop-color="#F77B1E"/>
            <stop offset=".647" stop-color="#F56F24"/>
            <stop offset=".709" stop-color="#F3632B"/>
            <stop offset=".774" stop-color="#F25532"/>
            <stop offset=".844" stop-color="#EF473A"/>
            <stop offset=".918" stop-color="#ED3842"/>
            <stop offset=".999" stop-color="#EB284B"/>
        </linearGradient>
        <linearGradient id="d" x1="37.855" y1="22.323" x2="25.398" y2="22.323" gradientUnits="userSpaceOnUse">
            <stop offset=".001" stop-color="#FFB200"/>
            <stop offset=".081" stop-color="#FFB100"/>
            <stop offset=".156" stop-color="#FFAF02"/>
            <stop offset=".225" stop-color="#FEAB04"/>
            <stop offset=".291" stop-color="#FDA606"/>
            <stop offset=".353" stop-color="#FCA00A"/>
            <stop offset=".413" stop-color="#FB980E"/>
            <stop offset=".471" stop-color="#FA9013"/>
            <stop offset=".529" stop-color="#F98618"/>
            <stop offset=".587" stop-color="#F77B1E"/>
            <stop offset=".647" stop-color="#F56F24"/>
            <stop offset=".709" stop-color="#F3632B"/>
            <stop offset=".774" stop-color="#F25532"/>
            <stop offset=".844" stop-color="#EF473A"/>
            <stop offset=".918" stop-color="#ED3842"/>
            <stop offset=".999" stop-color="#EB284B"/>
        </linearGradient>
        <clipPath id="a">
            <path fill="#fff" d="M9.418 6.714h31.45v28.571H9.418z"/>
        </clipPath>
    </defs>
</svg>
